packages/foundations/assets/icons/functional/images/environment/moon_12.svg

<svg width="12" height="12" viewBox="0 0 12 12" fill="none" xmlns="http://www.w3.org/2000/svg">
<g clip-path="url(#clip0_232_213)">
<path fill-rule="evenodd" clip-rule="evenodd" d="M6.45268 2.07008L6.66582 1.61905C6.73661 1.46925 6.67256 1.29042 6.52276 1.21963C6.47843 1.19868 6.42963 1.18892 6.38064 1.1912L5.88233 1.21438C3.32764 1.33321 1.30865 3.44255 1.30865 6.00912C1.30865 8.66009 3.45769 10.8091 6.10865 10.8091C7.98261 10.8091 9.66089 9.72521 10.4488 8.06122L10.6624 7.61003C10.7333 7.46028 10.6694 7.28141 10.5197 7.21051C10.4753 7.18949 10.4264 7.17969 10.3774 7.18197L9.87871 7.20509C9.82222 7.20771 9.76553 7.20903 9.70866 7.20903C7.72043 7.20903 6.10865 5.59725 6.10865 3.60903C6.10865 3.0693 6.22712 2.54741 6.45268 2.07008ZM5.02025 2.57583L4.98359 2.76002C4.93396 3.03797 4.90865 3.3218 4.90865 3.60903L4.91094 3.75854C4.97923 5.99052 6.57126 7.83903 8.68193 8.29897L8.85666 8.33343L8.80381 8.39654C8.13453 9.15191 7.16301 9.60912 6.10865 9.60912C4.12043 9.60912 2.50865 7.99735 2.50865 6.00912C2.50865 4.40513 3.56032 3.03906 5.02025 2.57583Z" fill="#1A1C1F"/>
</g>
<defs>
<clipPath id="clip0_232_213">
<rect width="12" height="12" fill="white"/>
</clipPath>
</defs>
</svg>

<svg xmlns="http://www.w3.org/2000/svg" width="12" height="12" fill="none"><g clip-path="url(#a)"><path fill="#1A1C1F" fill-rule="evenodd" d="m6.453 2.07.213-.45a.3.3 0 0 0-.285-.429l-.499.023a4.8 4.8 0 1 0 4.567 6.847l.213-.451a.3.3 0 0 0-.285-.428l-.498.023-.17.004A3.6 3.6 0 0 1 6.453 2.07m-1.433.506-.036.184q-.075.418-.075.849l.002.15a4.8 4.8 0 0 0 3.77 4.54l.176.034-.053.064a3.6 3.6 0 1 1-3.784-5.82" clip-rule="evenodd"/></g><defs><clipPath id="a"><path fill="#fff" d="M0 0h12v12H0z"/></clipPath></defs></svg>
